src/components/Home/images/staples.svg

<svg width="198" height="36" viewBox="0 0 198 36" fill="none" xmlns="http://www.w3.org/2000/svg">
<g clip-path="url(#clip0)">
<path d="M73.95 11.5764C70.9263 10.9391 67.8216 10.2665 67.8216 7.83904C67.8216 5.16325 70.6461 4.60244 73.0597 4.60244C75.5807 4.61592 78.068 5.18107 80.3461 6.25799L80.564 6.36353C80.5938 6.37826 80.6282 6.38088 80.6599 6.37084C80.6917 6.36081 80.7183 6.3389 80.7341 6.30972L82.9111 2.46884C82.9201 2.45364 82.9258 2.43676 82.9279 2.41926C82.93 2.40175 82.9285 2.384 82.9235 2.3671C82.9184 2.35021 82.9099 2.33454 82.8985 2.32106C82.8871 2.30759 82.873 2.29661 82.8572 2.2888L82.6247 2.17291C79.3395 0.687054 76.266 0 72.958 0C66.537 0 62.3864 3.10416 62.3864 7.91354C62.3864 13.4534 67.0392 15.1773 72.0615 16.212C75.2242 16.8639 78.2874 17.5095 78.2874 20.0363C78.2874 22.7659 75.2491 23.3474 72.6591 23.3474C69.9218 23.3474 67.1762 22.5486 64.2625 20.9055L64.1712 20.8517C64.1564 20.8429 64.14 20.8371 64.1229 20.8347C64.1059 20.8323 64.0885 20.8334 64.0718 20.8378C64.0552 20.8423 64.0396 20.85 64.026 20.8605C64.0124 20.8711 64.0011 20.8843 63.9927 20.8993L61.7389 24.8912C61.7227 24.9205 61.7184 24.9549 61.7269 24.9872C61.7354 25.0196 61.7561 25.0475 61.7846 25.0651L61.878 25.1209C65.1705 26.9803 68.8857 27.9678 72.6695 27.9892C79.7006 27.9892 83.7329 25.0775 83.7329 19.9991C83.7288 13.6583 78.1047 12.4539 73.95 11.5764Z" fill="black"/>
<path d="M100.086 22.9333C100.081 22.9167 100.072 22.9013 100.06 22.8882C100.048 22.8751 100.034 22.8644 100.018 22.8569C100.002 22.8493 99.9851 22.8451 99.9675 22.8443C99.9499 22.8436 99.9324 22.8464 99.9159 22.8526L99.6295 22.9623C98.5026 23.3969 97.7265 23.5831 96.1015 23.5831C94.215 23.5831 92.9885 22.567 92.9885 20.9963V11.4252H99.7188C99.7358 11.4255 99.7528 11.4223 99.7686 11.416C99.7845 11.4097 99.7989 11.4003 99.8111 11.3883C99.8232 11.3764 99.8329 11.3622 99.8395 11.3465C99.8461 11.3308 99.8495 11.3139 99.8495 11.2969V7.42495C99.8495 7.39092 99.8359 7.35829 99.8118 7.33423C99.7877 7.31016 99.755 7.29665 99.7208 7.29665H92.9968V2.25135C92.9968 2.21732 92.9833 2.18469 92.9592 2.16063C92.935 2.13656 92.9023 2.12305 92.8682 2.12305H87.9414C87.9243 2.12304 87.9074 2.12643 87.8917 2.13301C87.8759 2.13958 87.8617 2.14922 87.8497 2.16136C87.8377 2.17349 87.8283 2.18788 87.8219 2.20369C87.8156 2.21949 87.8125 2.2364 87.8127 2.25342V7.29458H83.7908C83.7737 7.29458 83.7568 7.29796 83.7411 7.30454C83.7253 7.31112 83.711 7.32075 83.6991 7.33289C83.6871 7.34502 83.6777 7.35941 83.6713 7.37522C83.665 7.39102 83.6619 7.40793 83.6621 7.42495V11.3052C83.6618 11.3224 83.665 11.3394 83.6715 11.3554C83.678 11.3713 83.6876 11.3858 83.6998 11.398C83.712 11.4101 83.7265 11.4197 83.7425 11.4262C83.7585 11.4326 83.7756 11.4358 83.7929 11.4355H87.8148V21.522C87.8148 25.5719 90.5314 27.989 95.0784 27.989C97.7202 27.989 99.2643 27.4406 100.873 26.7784L101.178 26.648C101.207 26.6348 101.231 26.6112 101.244 26.5818C101.257 26.5524 101.258 26.5192 101.248 26.4886L100.086 22.9333Z" fill="black"/>
<path d="M44.3263 0.569336H6.34834C2.74977 0.569336 0 3.48518 0 7.0798V27.3334C3.77565e-07 27.3702 0.0146499 27.4055 0.0407258 27.4315C0.0668018 27.4575 0.102168 27.4721 0.139045 27.4721H5.0492C5.08608 27.4721 5.12144 27.4575 5.14752 27.4315C5.1736 27.4055 5.18825 27.3702 5.18825 27.3334V6.77766H45.4885V27.3334C45.4885 27.3702 45.5031 27.4055 45.5292 27.4315C45.5553 27.4575 45.5906 27.4721 45.6275 27.4721H50.5439C50.5808 27.4721 50.6161 27.4575 50.6422 27.4315C50.6683 27.4055 50.6829 27.3702 50.6829 27.3334V7.0798C50.6829 3.48518 47.9394 0.569336 44.3263 0.569336Z" fill="black"/>
<path d="M123.101 23.6948H122.321C121.356 23.6948 120.843 23.1692 120.843 22.1779V14.165C120.843 9.19839 118.145 6.77715 112.567 6.77715C109.49 6.72715 106.441 7.3635 103.643 8.63964C103.614 8.65245 103.59 8.67565 103.577 8.70471C103.564 8.73378 103.563 8.76665 103.573 8.79692L104.803 12.5467C104.809 12.5634 104.818 12.5787 104.829 12.5919C104.841 12.605 104.855 12.6157 104.871 12.6232C104.887 12.6307 104.904 12.635 104.922 12.6357C104.939 12.6365 104.957 12.6336 104.973 12.6275C107.686 11.5576 110.106 10.9719 111.795 10.9719C113.712 10.9719 115.659 11.3258 115.659 13.9415V15.057C115.659 15.057 115.354 15.0797 109.197 15.5743C103.039 16.0689 102.141 20.3692 102.141 22.1117C102.141 25.5718 104.897 27.991 108.844 27.991C111.592 28.0298 114.26 27.0631 116.342 25.2738C116.803 26.2361 118.106 27.8503 121.661 27.8503H123.114C123.131 27.8505 123.148 27.8474 123.163 27.8411C123.179 27.8348 123.194 27.8254 123.206 27.8134C123.218 27.8015 123.228 27.7872 123.234 27.7715C123.241 27.7558 123.244 27.739 123.244 27.722V23.8231C123.244 23.805 123.241 23.787 123.233 23.7704C123.226 23.7538 123.215 23.739 123.202 23.7269C123.188 23.7147 123.172 23.7056 123.155 23.7001C123.137 23.6946 123.119 23.6928 123.101 23.6948ZM115.657 21.8034C113.374 23.4154 111.751 24.0797 110.085 24.0797C108.35 24.0797 107.179 23.1857 107.179 21.8551C107.179 21.2901 107.246 19.5146 109.709 19.2C112.173 18.8854 115.653 18.4467 115.653 18.4467L115.657 21.8034Z" fill="black"/>
<path d="M189.816 15.2457C186.495 14.6642 184.856 14.3579 184.856 12.7996C184.856 11.8746 185.296 10.6515 188.886 10.6515C191.099 10.6526 193.277 11.2107 195.216 12.274L195.355 12.3464C195.385 12.3616 195.419 12.3649 195.451 12.3556C195.483 12.3464 195.51 12.3253 195.527 12.2967L197.453 8.96079C197.462 8.94546 197.468 8.92846 197.47 8.91086C197.472 8.89327 197.47 8.87545 197.465 8.85854C197.459 8.84163 197.451 8.82599 197.439 8.8126C197.427 8.79921 197.413 8.78837 197.397 8.78075L197.235 8.70211C194.911 7.63635 192.682 6.75684 188.913 6.75684C183.15 6.75684 179.975 8.97528 179.975 13.0024C179.975 17.5841 184.246 18.6768 188.247 19.339C191.787 19.9247 193.211 20.4213 193.211 21.9796C193.211 23.3993 191.839 24.0884 188.909 24.0884C186.211 24.0884 183.466 22.9461 181.627 21.9858L181.511 21.93C181.481 21.9158 181.446 21.9134 181.415 21.9234C181.383 21.9334 181.357 21.955 181.34 21.9838L179.429 25.3528C179.421 25.3678 179.415 25.3842 179.413 25.4013C179.411 25.4183 179.412 25.4356 179.417 25.4521C179.422 25.4687 179.429 25.4841 179.44 25.4976C179.451 25.5111 179.464 25.5224 179.479 25.5308L179.593 25.5929C182.602 27.147 185.819 27.9686 188.909 27.9686C194.942 27.9686 198.001 25.8433 198.001 21.6485C198.003 17.0771 193.954 15.97 189.816 15.2457Z" fill="black"/>
<path d="M136.877 6.77734C134.534 6.77734 132.554 7.54924 130.651 9.20687V7.42508C130.651 7.39105 130.638 7.35841 130.613 7.33435C130.589 7.31029 130.557 7.29677 130.522 7.29677H125.592C125.575 7.29677 125.558 7.30016 125.542 7.30673C125.526 7.31331 125.512 7.32295 125.5 7.33508C125.488 7.34722 125.478 7.36161 125.472 7.37741C125.466 7.39322 125.463 7.41013 125.463 7.42715V35.8695C125.463 35.8867 125.466 35.9038 125.472 35.9198C125.479 35.9357 125.488 35.9502 125.501 35.9623C125.513 35.9745 125.527 35.9841 125.543 35.9906C125.559 35.997 125.576 36.0002 125.594 35.9999H130.516C130.533 36.0002 130.55 35.9971 130.566 35.9907C130.582 35.9844 130.596 35.975 130.609 35.9631C130.621 35.9511 130.63 35.9369 130.637 35.9212C130.644 35.9055 130.647 35.8886 130.647 35.8716V25.6279C132.459 27.1303 134.727 27.9912 136.873 27.9912C142.377 27.9912 146.212 23.6309 146.212 17.3853C146.216 11.4357 142.113 6.77734 136.877 6.77734ZM135.58 23.5915C133.779 23.5915 132.26 22.7451 130.645 20.8475V13.7431C132.305 11.9654 133.835 11.1749 135.58 11.1749C138.89 11.1749 141.028 13.6127 141.028 17.3832C141.028 21.0958 138.838 23.5915 135.58 23.5915Z" fill="black"/>
<path d="M154.074 0.569336H149.147C149.075 0.569336 149.017 0.627707 149.017 0.699711V27.3417C149.017 27.4137 149.075 27.4721 149.147 27.4721H154.074C154.146 27.4721 154.205 27.4137 154.205 27.3417V0.699711C154.205 0.627707 154.146 0.569336 154.074 0.569336Z" fill="black"/>
<path d="M175.362 22.0126C175.345 21.9834 175.317 21.962 175.285 21.9527C175.252 21.9435 175.218 21.9471 175.188 21.9629L175.02 22.054C173.341 22.9335 171.826 23.8213 168.644 23.8213C165.193 23.8213 162.85 21.907 162.381 18.7015H176.997C177.014 18.7017 177.031 18.6986 177.047 18.6923C177.063 18.686 177.078 18.6766 177.09 18.6646C177.102 18.6527 177.112 18.6384 177.118 18.6227C177.125 18.607 177.128 18.5902 177.128 18.5732V17.1639C177.128 10.7486 173.287 6.77734 167.102 6.77734C161.177 6.77734 157.037 11.2018 157.037 17.5384C157.037 23.7902 161.514 27.9912 168.175 27.9912C171.337 28.0328 174.447 27.192 177.155 25.5637L177.242 25.5079C177.27 25.4896 177.29 25.4615 177.298 25.4291C177.305 25.3968 177.3 25.3628 177.284 25.334L175.362 22.0126ZM167.15 10.968C169.848 10.968 171.508 12.3669 171.952 15.0158H162.406C162.862 12.4021 164.548 10.968 167.15 10.968Z" fill="black"/>
</g>
<defs>
<clipPath id="clip0">
<rect width="198" height="36" fill="white"/>
</clipPath>
</defs>
</svg>

<svg fill="none" xmlns="http://www.w3.org/2000/svg" viewBox="0 0 198 36"><g clip-path="url(#a)" fill="#000"><path d="M73.95 11.576c-3.023-.637-6.128-1.31-6.128-3.737 0-2.676 2.825-3.237 5.238-3.237 2.521.014 5.008.58 7.287 1.656l.217.106a.13.13 0 0 0 .17-.054l2.178-3.841a.127.127 0 0 0-.013-.148.129.129 0 0 0-.041-.032l-.233-.116C79.34.687 76.266 0 72.96 0c-6.422 0-10.572 3.104-10.572 7.914 0 5.54 4.653 7.263 9.675 8.298 3.163.652 6.226 1.297 6.226 3.824 0 2.73-3.038 3.311-5.628 3.311-2.738 0-5.483-.798-8.397-2.442l-.091-.053a.13.13 0 0 0-.145.008.13.13 0 0 0-.034.04L61.74 24.89a.13.13 0 0 0 .046.174l.094.056a22.202 22.202 0 0 0 10.791 2.868c7.031 0 11.063-2.912 11.063-7.99-.004-6.34-5.628-7.545-9.782-8.423ZM100.086 22.933a.117.117 0 0 0-.026-.045.134.134 0 0 0-.093-.044.132.132 0 0 0-.051.009l-.287.11c-1.126.434-1.903.62-3.528.62-1.886 0-3.112-1.016-3.112-2.587v-9.57h6.73a.129.129 0 0 0 .13-.13V7.426a.128.128 0 0 0-.128-.128h-6.724V2.25a.128.128 0 0 0-.129-.128h-4.927a.128.128 0 0 0-.128.13v5.042H83.79a.129.129 0 0 0-.129.13v3.88a.127.127 0 0 0 .08.121.13.13 0 0 0 .05.01h4.023v10.086c0 4.05 2.716 6.467 7.263 6.467 2.642 0 4.186-.548 5.795-1.21l.305-.131a.132.132 0 0 0 .066-.066.13.13 0 0 0 .004-.093l-1.162-3.556ZM44.326.569H6.348C2.75.569 0 3.485 0 7.079v20.254a.139.139 0 0 0 .139.139h4.91a.14.14 0 0 0 .14-.14V6.778h40.3v20.556a.138.138 0 0 0 .139.139h4.916a.14.14 0 0 0 .139-.14V7.08c0-3.594-2.744-6.51-6.357-6.51ZM123.102 23.695h-.781c-.965 0-1.477-.526-1.477-1.517v-8.013c0-4.967-2.698-7.388-8.277-7.388a20.695 20.695 0 0 0-8.923 1.863.128.128 0 0 0-.071.157l1.231 3.75a.117.117 0 0 0 .026.045.124.124 0 0 0 .042.031.134.134 0 0 0 .102.004c2.712-1.07 5.132-1.655 6.821-1.655 1.918 0 3.865.354 3.865 2.97v1.115s-.306.023-6.463.517c-6.157.495-7.056 4.795-7.056 6.538 0 3.46 2.756 5.879 6.703 5.879a11.26 11.26 0 0 0 7.498-2.717c.461.962 1.764 2.576 5.319 2.576h1.453a.132.132 0 0 0 .05-.009.123.123 0 0 0 .042-.028.123.123 0 0 0 .039-.091v-3.899a.136.136 0 0 0-.011-.053.131.131 0 0 0-.132-.075Zm-7.445-1.892c-2.282 1.612-3.905 2.277-5.572 2.277-1.735 0-2.905-.894-2.905-2.225 0-.565.066-2.34 2.53-2.655 2.463-.315 5.943-.753 5.943-.753l.004 3.356ZM189.815 15.246c-3.32-.582-4.959-.888-4.959-2.446 0-.925.439-2.149 4.03-2.149 2.213.002 4.39.56 6.329 1.623l.139.072a.132.132 0 0 0 .173-.05l1.926-3.335a.132.132 0 0 0 .011-.102.12.12 0 0 0-.026-.046.12.12 0 0 0-.041-.032l-.162-.079c-2.325-1.066-4.554-1.945-8.322-1.945-5.763 0-8.939 2.218-8.939 6.245 0 4.582 4.271 5.675 8.273 6.337 3.54.586 4.964 1.082 4.964 2.64 0 1.42-1.372 2.11-4.302 2.11-2.698 0-5.444-1.143-7.283-2.103l-.116-.056a.131.131 0 0 0-.17.054l-1.911 3.369a.12.12 0 0 0-.016.048.124.124 0 0 0 .027.097.12.12 0 0 0 .038.033l.115.062c3.009 1.554 6.225 2.376 9.316 2.376 6.032 0 9.091-2.126 9.091-6.32.002-4.572-4.046-5.679-8.185-6.403ZM136.877 6.778c-2.343 0-4.323.771-6.226 2.43V7.424a.125.125 0 0 0-.038-.09.127.127 0 0 0-.091-.038h-4.93a.132.132 0 0 0-.092.038.123.123 0 0 0-.037.092V35.87c0 .017.003.034.009.05.007.016.016.03.029.043a.124.124 0 0 0 .093.037h4.922a.132.132 0 0 0 .093-.037.136.136 0 0 0 .028-.042.12.12 0 0 0 .01-.05V25.629c1.812 1.503 4.08 2.363 6.226 2.363 5.504 0 9.339-4.36 9.339-10.605.004-5.95-4.099-10.608-9.335-10.608Zm-1.297 16.814c-1.801 0-3.32-.847-4.935-2.744v-7.105c1.66-1.777 3.19-2.568 4.935-2.568 3.31 0 5.448 2.438 5.448 6.209 0 3.712-2.19 6.208-5.448 6.208ZM154.074.569h-4.927a.13.13 0 0 0-.13.13v26.642c0 .072.058.13.13.13h4.927a.13.13 0 0 0 .131-.13V.7a.13.13 0 0 0-.131-.13ZM175.362 22.013a.132.132 0 0 0-.174-.05l-.168.091c-1.679.88-3.194 1.768-6.376 1.768-3.451 0-5.794-1.915-6.263-5.12h14.616a.129.129 0 0 0 .131-.129v-1.409c0-6.415-3.841-10.386-10.026-10.386-5.925 0-10.065 4.424-10.065 10.76 0 6.253 4.477 10.453 11.138 10.453 3.162.042 6.272-.799 8.98-2.427l.087-.056a.132.132 0 0 0 .056-.079.137.137 0 0 0-.014-.095l-1.922-3.321Zm-8.212-11.045c2.698 0 4.358 1.4 4.802 4.048h-9.546c.456-2.614 2.142-4.048 4.744-4.048Z"/></g><defs><clipPath id="a"><path fill="#fff" d="M0 0h198v36H0z"/></clipPath></defs></svg>
